assets/icons/qvision/outdoor_grill.svg

<svg xmlns="http://www.w3.org/2000/svg" enable-background="new 0 0 24 24" height="24" viewBox="0 0 24 24" width="24"><g><rect fill="none" height="24" width="24"/></g><g><g><path d="M17,22c1.66,0,3-1.34,3-3s-1.34-3-3-3c-1.3,0-2.4,0.84-2.82,2H9.14l1.99-3.06C11.42,14.98,11.71,15,12,15 s0.58-0.02,0.87-0.06l1.02,1.57c0.42-0.53,0.96-0.95,1.6-1.21l-0.6-0.93C17.31,13.27,19,10.84,19,8H5c0,2.84,1.69,5.27,4.12,6.37 l-3.95,6.08c-0.3,0.46-0.17,1.08,0.29,1.38h0c0.46,0.3,1.08,0.17,1.38-0.29l1-1.55h6.34C14.6,21.16,15.7,22,17,22z M17,18 c0.55,0,1,0.45,1,1c0,0.55-0.45,1-1,1s-1-0.45-1-1C16,18.45,16.45,18,17,18z"/><path d="M9.41,7h1c0.15-1.15,0.23-1.64-0.89-2.96C9.1,3.54,8.84,3.27,9.06,2H8.07C7.86,3.11,8.1,4.05,8.96,4.96 C9.18,5.2,9.75,5.63,9.41,7z"/><path d="M11.89,7h1c0.15-1.15,0.23-1.64-0.89-2.96c-0.42-0.5-0.68-0.78-0.46-2.04h-0.99c-0.21,1.11,0.03,2.05,0.89,2.96 C11.67,5.2,12.24,5.63,11.89,7z"/><path d="M14.41,7h1c0.15-1.15,0.23-1.64-0.89-2.96C14.1,3.54,13.84,3.27,14.06,2h-0.99c-0.21,1.11,0.03,2.05,0.89,2.96 C14.18,5.2,14.75,5.63,14.41,7z"/></g></g></svg>

<svg width="24" height="24" viewBox="0 0 24 24" fill="none" xmlns="http://www.w3.org/2000/svg">
<g clip-path="url(#clip0_147_6549)">
<path d="M17 22C18.66 22 20 20.66 20 19C20 17.34 18.66 16 17 16C15.7 16 14.6 16.84 14.18 18H9.14L11.13 14.94C11.42 14.98 11.71 15 12 15C12.29 15 12.58 14.98 12.87 14.94L13.89 16.51C14.31 15.98 14.85 15.56 15.49 15.3L14.89 14.37C17.31 13.27 19 10.84 19 8H5C5 10.84 6.69 13.27 9.12 14.37L5.17 20.45C4.87 20.91 5 21.53 5.46 21.83C5.92 22.13 6.54 22 6.84 21.54L7.84 19.99H14.18C14.6 21.16 15.7 22 17 22ZM17 18C17.55 18 18 18.45 18 19C18 19.55 17.55 20 17 20C16.45 20 16 19.55 16 19C16 18.45 16.45 18 17 18Z" fill="#323232"/>
<path d="M9.41001 7H10.41C10.56 5.85 10.64 5.36 9.52001 4.04C9.10001 3.54 8.84001 3.27 9.06001 2H8.07001C7.86001 3.11 8.10001 4.05 8.96001 4.96C9.18001 5.2 9.75001 5.63 9.41001 7Z" fill="#323232"/>
<path d="M11.89 7H12.89C13.04 5.85 13.12 5.36 12 4.04C11.58 3.54 11.32 3.26 11.54 2H10.55C10.34 3.11 10.58 4.05 11.44 4.96C11.67 5.2 12.24 5.63 11.89 7Z" fill="#323232"/>
<path d="M14.41 7H15.41C15.56 5.85 15.64 5.36 14.52 4.04C14.1 3.54 13.84 3.27 14.06 2H13.07C12.86 3.11 13.1 4.05 13.96 4.96C14.18 5.2 14.75 5.63 14.41 7Z" fill="#323232"/>
</g>
<defs>
<clipPath id="clip0_147_6549">
<rect width="24" height="24" fill="white"/>
</clipPath>
</defs>
</svg>
